X: 2
M: 2/4
L: 1/8
K: D
V: 1
!segno!AA |\
dc BA | dc {c}BA | ^GA c/B/A/^G/ | A2 ||
V: 2 clef=bass middle=d
dd |\
d2d'a | dd'ba | gfed |
d2 :| !segno!cc | dcBA | eEAc | BA^GA |
ed cA | fe dc | fe dc | BA eE |


